X:1
T:Title
%%score 1 2
L:1/8
Q:1/4=110
M:4/4
K:Db
V:1 treble nm="Grand Piano, Soprano"
V:2 bass nm="Choir Pad, Bass"
V:1
 [DF]2 [FA]2- [FA][DF] D2 | [CE]2 [DF]6 | [DF]2 [CG]2 [DA]2 [GB]2 | [Gc]2 [Fd]2 [Fd]2 [Ec]2 | %4
w: By~Pluma~M.~Kimball~Brown,~1896 * * * *||||
 [Ae]2 [=GB]4 A2- | A2 A6 | [FA]2 A2 [=GB]2 [_Gc]2- | [Gc][GB] [GA]6 | [FA]2 [Fd]2 [Fd]2 [Gc]2 | %9
w: |||||
 [GB]2 [FA]2 A2 [GB]2 | [_FB]2 [=Fd]4 [Gc]2- | [Gc]2 [Fd]6- | [Fd]2 z2 z4 |] %13
w: ||||
V:2
 [D,A,]2 [D,D]2- [D,D][D,A,] [D,B,]2 | [D,=A,]2 [D,_A,]6 | [D,A,]2 [E,A,]2 [F,D]2 [G,D]2 | %3
 [E,A,]2 [D,A,]2 [D,A,]2 [E,A,]2 | [E,C]2 [E,D]4 [A,C]2- | [A,C]2 [A,C]6 | %6
 [A,C]2 [A,C]2 [A,D]2 [A,E]2- | [A,E][A,D] [A,C]6 | [D,A,]2 [D,A,]2 [D,=A,]2 [D,B,]2 | %9
 [D,C]2 [D,D]2 [F,D]2 [G,D]2 | [=G,D]2 [A,D]4 [A,E]2- | [A,E]2 [D,D]6- | [D,D]2 z2 z4 |] %13

